packages/kaspersky-hexa-ui-icons/src/iconsSVGs/16/ParentalControlSolid.svg

<svg width="16" height="16" viewBox="0 0 16 16" fill="none" xmlns="http://www.w3.org/2000/svg">
<path d="M5.31901 2.68335C4.00023 2.68335 2.93115 3.75243 2.93115 5.0712C2.93115 6.38998 4.00023 7.45906 5.31901 7.45906C6.63778 7.45906 7.70686 6.38998 7.70686 5.0712C7.70686 3.75243 6.63778 2.68335 5.31901 2.68335Z" fill="black"/>
<path d="M9.3501 6.66668C9.3501 5.57132 10.2381 4.68335 11.3334 4.68335C12.4288 4.68335 13.3168 5.57132 13.3168 6.66668C13.3168 7.76205 12.4288 8.65002 11.3334 8.65002C10.2381 8.65002 9.3501 7.76205 9.3501 6.66668Z" fill="black"/>
<path d="M10.2898 13.3167H13.8002C14.2696 13.3167 14.6502 12.9361 14.6502 12.4667V11.4C14.6502 10.2679 13.7324 9.35004 12.6002 9.35004H10.392C10.5375 9.76185 10.6167 10.205 10.6167 10.6667V12.0667C10.6167 12.5209 10.498 12.9473 10.2898 13.3167Z" fill="black"/>
<path d="M1.3501 10.6667C1.3501 9.20311 2.53654 8.01666 4.0001 8.01666H6.66677C8.13032 8.01666 9.31676 9.20311 9.31676 10.6667V12.0667C9.31676 12.757 8.75712 13.3167 8.06676 13.3167H2.6001C1.90974 13.3167 1.3501 12.757 1.3501 12.0667V10.6667Z" fill="black"/>
</svg>

<svg xmlns="http://www.w3.org/2000/svg" width="16" height="16" fill="none" viewBox="0 0 16 16"><path fill="#000" fill-rule="evenodd" d="M5.319 2.6833c-1.3188 0-2.3878 1.069-2.3878 2.3879 0 1.3187 1.069 2.3878 2.3878 2.3878S7.7069 6.39 7.7069 5.0712s-1.0691-2.388-2.3879-2.388m4.0311 3.9833c0-1.0953.888-1.9833 1.9833-1.9833s1.9834.888 1.9834 1.9833-.888 1.9834-1.9834 1.9834c-1.0953 0-1.9833-.888-1.9833-1.9834m-8 4c0-1.4636 1.1864-2.65 2.65-2.65h2.6667c1.4635 0 2.65 1.1864 2.65 2.65v1.4c0 .6904-.5597 1.25-1.25 1.25H2.6c-.6904 0-1.25-.5597-1.25-1.25zm8.9397 2.65h3.5104a.85.85 0 0 0 .85-.85V11.4c0-1.1322-.9178-2.05-2.05-2.05H10.392c.1455.4118.2247.8549.2247 1.3166v1.4c0 .4542-.1187.8807-.3269 1.25"/></svg>
